src/assets/images/brands/sony.svg

<svg height="140" viewBox="0 0 130 140" width="130" xmlns="http://www.w3.org/2000/svg"><path d="m96.622444 20.680008-2.815643 1.358124s-.108826 1.741432-.203476 3.392967c-.832863 11.560661-.946434 16.486839-.946434 20.064354.037865 9.208778 1.064735 19.875069 1.064735 19.875069l.146698 1.807685 2.711533-1.216163s.042587-43.450691.042587-45.282036zm-6.317436 3.04277-2.673668 1.116799s-.108841 1.358131-.208214 3.004913c-.946434 11.607987-1.036346 17.532661-1.055282 19.983917-.070977 8.607796 1.140457 20.49498 1.140457 20.49498l.184562 1.703575 3.137421-1.419647.160889-2.763573c.473221-5.678596.473221-5.678596.662506-19.032753.118301-8.04467-1.154648-20.390869-1.183045-20.788368-.056785-.82341-.179824-2.290382-.179824-2.290382zm-6.326897 2.962342-2.687858 1.235084s-.104111 1.339211-.203484 2.976532c-.946434 11.612724-1.036346 17.537384-1.060013 20.007569-.066246 8.598342 1.145188 20.494987 1.145188 20.494987l.175087 1.618401 3.146888-1.419648.156166-2.678405s.473214-5.678589.667222-19.061135c.118301-8.04467-1.159371-20.390877-1.18776-20.783653-.056785-.823387-.146698-2.366081-.146698-2.366081zm-6.284309 2.924469-2.768311 1.173584c-.014007.949363-.080368 1.897224-.198745 2.839294-.683251 6.742096-1.019677 13.514854-1.00795 20.291489-.104111 8.517883 1.192497 20.461868 1.192497 20.461868l.156166 1.618385 2.839302-1.381782.217674-2.602684s.705086-6.184937.861252-19.681053c.075722-6.951539-1.069473-19.146325-1.116791-20.428734-.004737-.790268-.175094-2.290367-.175094-2.290367zm-6.625023 3.052246-2.053749.832855-.279198 2.806183c-1.159385 11.106361-1.272957 17.556297-1.306083 20.12587-.099373 8.51789 1.419647 20.575424 1.419647 20.575424l.160896 1.788757 2.593224-1.235092.151435-2.673668s.619912-6.298515.804459-19.789894c.104111-7.136101-1.206695-19.113197-1.353393-20.693741-.028389-.776062-.108841-1.736694-.108841-1.736694zm-6.511452 2.933937-1.367588.591514v1.372322c-.752411 5.815835-2.086883 12.819436-2.238315 21.413025-.165627 9.40754 1.802951 20.778916 1.802951 20.778916l.189286 1.793495 1.556881-.747681.250801-2.839294c1.168846-10.467545 1.419647-11.636391 1.537956-20.282044.104103-7.216545-1.140457-14.972541-1.698845-20.518638-.048813-.522186-.063034-1.047028-.042587-1.571076zm-6.246441 2.929207-1.381797.629379s.184562 7.571457-.241345 10.831909c-1.391243 7.694496-1.892864 10.377625-1.717762 14.030853.176747 3.267578.59272 6.517807 1.244545 9.724594.302864 2.053757.402237 3.312516.402237 3.312516l.056782 7.420013 1.33921-.662491s0-6.184936.037854-6.530395c.037864-.345436.037864-.700348.113578-1.589997.231873-2.720993 1.097851-8.267082 1.419648-12.776832.388027-5.815827-.86599-11.324051-1.116795-14.045044-.1325-1.46225-.227135-3.416618-.16563-10.358704zm-6.170742 2.915008-1.310802.558396c.042587 8.820747.042587 11.357177.033115 12.455047-1.272953 6.625023-1.51902 6.960999-1.7225 10.207268-.156169 2.550629.265 4.377251.705086 6.568237.383305 1.892868.847061 3.956085.847061 3.956085l-.037864 12.156914 1.419647-.690887.037865-12.019684s1.192501-6.468872 1.377063-10.174141c.212937-4.448242-1.353409-9.208794-1.353409-10.301926zm-6.151806 2.877144-1.263492.534737v19.59114c0 .473214-.913303 1.717774-1.140438 2.484383-.22715.766625-.567867 1.807694.799721 2.763596.440101.307586.302864 1.296608.340717 1.949646.037865.653045 0 18.356041 0 18.356041l1.301342-.553658v-19.610069c0-.591522 1.892864-2.276169 1.24456-4.074387-.217674-.596252-1.031605-1.306076-1.041065-1.419647-.089912-.936974-.241345-19.998108-.241345-19.998108zm-5.948329 2.801445-1.183041.473221v45.111664l1.187778-.473214zm-5.512963 2.569565-1.197235.501602v45.116409l1.192497-.506332zm21.114895 50.250801c-3.511253 0-7.737083 1.717773-7.661369 5.678589.075718 3.960815 4.197426 5.489311 7.661369 5.489311 3.463944 0 7.240212-1.537956 7.311192-5.489311s-3.714749-5.697518-7.315915-5.697518zm-16.874885.075714c-1.336133-.0252-2.662747.229485-3.894558.747673-2.602688 1.168846-1.892865 3.473419-1.395993 4.060204.567868.761871 1.561608 1.130973 2.839299 1.419647 1.817146.411697 4.258941.563133 5.801631.766609 1.419648.184555 1.315541 1.580536.525261 2.0159-1.339195.728744-4.689571.686157-6.520916-.335991-1.599472-.880173-1.419647-1.717766-1.419647-1.940178h-1.419647v3.785736h1.585278v-.326523c-.037854-.548935.728755-.127777 1.201972.03785 2.616883.903846 6.303223 1.064735 8.413777-.312325 2.366081-1.537949 1.585277-4.41983-1.093125-5.285812-2.030101-.662499-5.314224-.553665-6.975215-1.060013-1.287148-.392761-.903843-2.271431 2.900817-2.124741 3.728943.141983 4.637524 1.864472 4.637524 2.489121h1.282414v-3.473404h-1.37706c.141956.657768-.22715.73822-.50161.473221-.473217-.411698-2.422863-.946427-4.590202-.946427zm25.690898.473213v1.339203h1.263497c.700348.023667.700348.35965.700348.761887v6.113952c0 .298111-.094635.582047-.629372.619912h-1.315536v1.206695h5.924652v-1.291885h-1.348664c-.298134 0-.64357.052063-.64357-.615174v-5.039749l7.902703 6.946808h1.89286v-8.148781c0-.298126.151436-.629371.473213-.629371h1.381798v-1.301339h-5.754303v1.28241h1.263489c.293396.037842.648308.037842.648308.757141v4.221085l-6.762261-6.260636zm16.889077 0v1.315544h1.11206c.445648-.016998.872116.182137 1.14518.534737.037865.056778 3.98922 4.396179 3.98922 4.396179v2.280892c0 .151435-.028405.23661-.307602.23661h-1.64206v1.277687h6.7528v-1.291885h-1.476432c-.283936 0-.283936 0-.283936-.236611v-2.257232s3.563316-4.216355 3.847252-4.505013c.19149-.249359.477447-.408607.79026-.440101h1.306084v-1.315537h-5.583962v1.315537h.847062c.279197 0 .321785.392776.189285.572601l-2.323479 2.735184s-2.030098-2.437058-2.318771-2.716263c-.288651-.279198-.075714-.591522.075722-.591522h.700363v-1.315537zm-25.771332.946434c2.418125 0 4.258942 1.485909 4.258942 4.102791s-1.892865 4.031792-4.258942 4.098038c-2.366081.066253-4.258946-1.481156-4.258946-4.098038s1.836083-4.116989 4.254208-4.116989zm-5.678593 12.431382c-1.836078-.03312-4.074398.946434-4.036533 3.501808.037853 2.555366 2.366081 3.312515 4.258945 3.312515 1.982777 0 3.080628-1.268234 3.208405-2.224121h-.719299c-.265 1.173576-1.585263 1.419647-2.418126 1.419647-1.407272-.015587-2.539116-1.162216-2.536445-2.569565 0-1.37706.728756-2.48912 2.186268-2.6642 1.381782-.175094 2.673667.534729 2.735191 1.64679h.662498v-2.124748h-.719299c.075718.473213-.127762.473213-.283916.293388-.697709-.434708-1.50631-.658234-2.328228-.643562zm42.589436.151435h-.170365c-.656158.030205-1.299682.191101-1.892868.473214-.454582.195472-.79911.582435-.940727 1.056572-.141594.474143-.065689.986671.207253 1.399414.375701.468193.915336.776054 1.509559.861259 1.004021.209015 2.018013.366959 3.03804.473213.946427.141968.752411.970093.274468 1.258759-.99849.629371-2.190987.539459-3.421356-.241341-.823387-.530006-.742951-1.036346-.742951-1.168846h-.742935v2.309296h.832848v-.198761c0-.350174.378578-.094628.634109 0 1.372337.553672 3.312508.653045 4.40564-.18454 1.230362-.946434.856529-2.668945-.572586-3.198944-1.069474-.392761-2.810906-.255539-3.657952-.64357-.757148-.340714-.47322-1.419647 1.514283-1.381798 1.98751.037865 2.446533 1.225624 2.446533 1.60421h.671959v-2.148407h-.724022c.070976.444824-.080437.440094-.288658.335983-.726357-.393646-1.539917-.598655-2.366074-.596245zm-50.884911.165627v.804466h.700352c.269733 0 .340713.151421.340713.388031v3.861443c0 .23661-.07098.340721-.340713.340721h-.700352v.804466h3.629559v-.813927h-.709824c-.27446 0-.335979-.108848-.335979-.345459l.023655-3.861442c0-.231865.056781-.388024.331256-.388024h.709824v-.799736zm20.93507 0v.804466h.705086c.269733 0 .335991.151421.335991.388031v3.033318c0 1.89286 1.556873 2.25251 3.038036 2.25251 1.481171 0 2.948143-.354912 2.929215-2.153137v-2.839302c0-.473214.14669-.648301.321777-.648301h.72876v-.799736h-3.099556v.804474h.700348c.274475 0 .340713.151428.340713.383301v3.127968c0 .671959-.165626 1.419647-1.89286 1.419647-1.552147 0-1.471695-1.216171-1.471695-1.419647v-3.146904c0-.236603.066238-.388024.340713-.388024h.705086v-.828125zm-8.229233 0v2.366081h.757149c0-1.61367.080452-1.509567.719296-1.566345h1.419647v4.258942c0 .23661-.070992.388038-.340714.388038h-.705101v.757134h3.657963v-.766602h-.705086c-.269737 0-.335994-.15142-.335994-.388031v-4.258942h1.419647c.572601.066239.719299-.09465.719299 1.566346h.738217v-2.366082zm-21.16222 0v.818664h.667237c.269737 0 .340717.123024.340717.350182v3.861435c0 .231873-.06152.340721-.335979.340721h-.705086v.804459h3.672146v-.804459h-.719284c-.269738 0-.33598-.104111-.33598-.335991v-1.523742h2.214646c2.006431 0 2.839298-.520539 2.839298-1.807694 0-1.287148-.582062-1.708313-2.366081-1.708313zm38.283181 0v.766609h.667236c.269722 0 .335983.170364.335983.402237v3.856705c0 .236603-.056785.345451-.33126.345451h-.709824v.828125h3.657967v-.813927h-.667237c-.269737 0-.335983-.10411-.335983-.335983v-1.523758h1.802956c.705085 0 1.078933.184548 1.078933.662506v.681427c0 1.230355.785538 1.490631 1.604195 1.490631.9701 0 1.2351-.317062 1.2351-1.419647v-.473221h-.653038v.397499c0 .335984.033127.695633-.269738.695633-.302856 0-.335983-.260261-.335983-.435371v-.894363c-.033127-.752411-.473213-.880188-1.083664-1.031609.714554-.1325 1.542687-.449562 1.547425-1.419647 0-1.164124-.5868-1.73671-2.366082-1.73671zm9.118866 0v.804466h.705085c.269738 0 .335999.156159.335999.388031v3.85672c0 .231873-.066261.345444-.335999.345444h-.705085v.804466h7.372703v-2.366081h-.714546c0 1.201965-.108849 1.504829-.747696 1.566345h-3.274643v-1.954384h1.528481c.203491 0 .331253.075722.331253.392769v.667236h.695633v-2.90554h-.681435v.63884c0 .326522-.127762.397499-.331261.397499h-1.542671v-1.864472h3.288841c.638848.061524.747689.392762.747689 1.590004h.714561v-2.366081zm-44.818276.771339h2.101078c.700352 0 1.173569.217682 1.173569.946434 0 .72876-.473217.946434-1.282414.946434h-1.996971zm40.459961 0h.042587c.512482.023873.922562.433953.946434.946434 0 .596245-.416435.946434-1.178306.946434h-1.996971v-1.892868h2.172065z"/></svg>

<?xml version="1.0" encoding="UTF-8"?>
<!-- Generated by Pixelmator Pro 3.6.14 -->
<svg width="130" height="140" viewBox="0 0 130 140" xmlns="http://www.w3.org/2000/svg">
    <path id="Path-copy-2" fill="#000000" stroke="none" d="M 96.622444 20.680008 L 93.806801 22.038132 C 93.806801 22.038132 93.697975 23.779564 93.603325 25.431099 C 92.770462 36.99176 92.656891 41.917938 92.656891 45.495453 C 92.694756 54.704231 93.721626 65.370522 93.721626 65.370522 L 93.868324 67.178207 L 96.579857 65.962044 C 96.579857 65.962044 96.622444 22.511353 96.622444 20.680008 Z M 90.305008 23.722778 L 87.63134 24.839577 C 87.63134 24.839577 87.522499 26.197708 87.423126 27.84449 C 86.476692 39.452477 86.38678 45.377151 86.367844 47.828407 C 86.296867 56.436203 87.508301 68.323387 87.508301 68.323387 L 87.692863 70.026962 L 90.830284 68.607315 L 90.991173 65.843742 C 91.464394 60.165146 91.464394 60.165146 91.653679 46.810989 C 91.77198 38.766319 90.499031 26.42012 90.470634 26.022621 C 90.413849 25.199211 90.29081 23.732239 90.29081 23.732239 Z M 83.978111 26.68512 L 81.290253 27.920204 C 81.290253 27.920204 81.186142 29.259415 81.086769 30.896736 C 80.140335 42.50946 80.050423 48.43412 80.026756 50.904305 C 79.96051 59.502647 81.171944 71.399292 81.171944 71.399292 L 81.347031 73.017693 L 84.493919 71.598045 L 84.650085 68.91964 C 84.650085 68.91964 85.123299 63.241051 85.317307 49.858505 C 85.435608 41.813835 84.157936 29.467628 84.129547 29.074852 C 84.072762 28.251465 83.982849 26.708771 83.982849 26.708771 Z M 77.693802 29.609589 L 74.925491 30.783173 C 74.911484 31.732536 74.845123 32.680397 74.726746 33.622467 C 74.043495 40.364563 73.707069 47.137321 73.718796 53.913956 C 73.614685 62.431839 74.911293 74.375824 74.911293 74.375824 L 75.067459 75.994209 L 77.906761 74.612427 L 78.124435 72.009743 C 78.124435 72.009743 78.829521 65.824806 78.985687 52.32869 C 79.061409 45.377151 77.916214 33.182365 77.868896 31.899956 C 77.864159 31.109688 77.693802 29.609589 77.693802 29.609589 Z M 71.068779 32.661835 L 69.01503 33.49469 L 68.735832 36.300873 C 67.576447 47.407234 67.462875 53.85717 67.429749 56.426743 C 67.330376 64.944633 68.849396 77.002167 68.849396 77.002167 L 69.010292 78.790924 L 71.603516 77.555832 L 71.754951 74.882164 C 71.754951 74.882164 72.374863 68.583649 72.55941 55.09227 C 72.663521 47.956169 71.352715 35.979073 71.206017 34.398529 C 71.177628 33.622467 71.097176 32.661835 71.097176 32.661835 Z M 64.557327 35.595772 L 63.189739 36.187286 C 63.189739 36.187286 63.189739 36.452286 63.189739 37.559608 C 62.437328 43.375443 61.102856 50.379044 60.951424 58.972633 C 60.785797 68.380173 62.754375 79.751549 62.754375 79.751549 L 62.943661 81.545044 L 64.500542 80.797363 L 64.751343 77.958069 C 65.920189 67.490524 66.17099 66.321678 66.289299 57.676025 C 66.393402 50.45948 65.148842 42.703484 64.590454 37.157387 C 64.541641 36.635201 64.52742 36.110359 64.547867 35.586311 Z M 58.310886 38.524979 L 56.929089 39.154358 C 56.929089 39.154358 57.113651 46.725815 56.687744 49.986267 C 55.296501 57.680763 54.79488 60.363892 54.969982 64.01712 C 55.146729 67.284698 55.562702 70.534927 56.214527 73.741714 C 56.517391 75.795471 56.616764 77.05423 56.616764 77.05423 L 56.673546 84.474243 L 58.012756 83.811752 C 58.012756 83.811752 58.012756 77.626816 58.05061 77.281357 C 58.088474 76.935921 58.088474 76.581009 58.164188 75.69136 C 58.396061 72.970367 59.262039 67.424278 59.583836 62.914528 C 59.971863 57.098701 58.717846 51.590477 58.467041 48.869484 C 58.334541 47.407234 58.239906 45.452866 58.301411 38.51078 Z M 52.140144 41.439987 L 50.829342 41.998383 C 50.871929 50.81913 50.871929 53.35556 50.862457 54.45343 C 49.589504 61.078453 49.343437 61.414429 49.139957 64.660698 C 48.983788 67.211327 49.404957 69.037949 49.845043 71.228935 C 50.228348 73.121803 50.692104 75.18502 50.692104 75.18502 L 50.65424 87.341934 L 52.073887 86.651047 L 52.111752 74.631363 C 52.111752 74.631363 53.304253 68.162491 53.488815 64.457222 C 53.701752 60.00898 52.135406 55.248428 52.135406 54.155296 Z M 45.988338 44.317131 L 44.724846 44.851868 L 44.724846 64.443008 C 44.724846 64.916222 43.811543 66.160782 43.584408 66.927391 C 43.357258 67.694016 43.016541 68.735085 44.384129 69.690987 C 44.82423 69.998573 44.686993 70.987595 44.724846 71.640633 C 44.762711 72.293678 44.724846 89.996674 44.724846 89.996674 L 46.026188 89.443016 L 46.026188 69.832947 C 46.026188 69.241425 47.919052 67.556778 47.270748 65.75856 C 47.053074 65.162308 46.239143 64.452484 46.229683 64.338913 C 46.139771 63.401939 45.988338 44.340805 45.988338 44.340805 Z M 40.040009 47.118576 L 38.856968 47.591797 L 38.856968 92.703461 L 40.044746 92.230247 Z M 34.527046 49.688141 L 33.329811 50.189743 L 33.329811 95.306152 L 34.522308 94.79982 Z M 55.641941 99.938942 C 52.130688 99.938942 47.904858 101.656715 47.980572 105.617531 C 48.05629 109.578346 52.177998 111.106842 55.641941 111.106842 C 59.105885 111.106842 62.882153 109.568886 62.953133 105.617531 C 63.024113 101.666176 59.238384 99.920013 55.637218 99.920013 Z M 38.767056 100.014656 C 37.430923 99.989456 36.104309 100.244141 34.872498 100.762329 C 32.26981 101.931175 32.979633 104.235748 33.476505 104.822533 C 34.044373 105.584404 35.038113 105.953506 36.315804 106.24218 C 38.13295 106.653877 40.574745 106.805313 42.117435 107.008789 C 43.537083 107.193344 43.432976 108.589325 42.642696 109.024689 C 41.303501 109.753433 37.953125 109.710846 36.12178 108.688698 C 34.522308 107.808525 34.702133 106.970932 34.702133 106.74852 L 33.282486 106.74852 L 33.282486 110.534256 L 34.867764 110.534256 L 34.867764 110.207733 C 34.82991 109.658798 35.596519 110.079956 36.069736 110.245583 C 38.686619 111.149429 42.372959 111.310318 44.483513 109.933258 C 46.849594 108.395309 46.06879 105.513428 43.390388 104.647446 C 41.360287 103.984947 38.076164 104.093781 36.415173 103.587433 C 35.128025 103.194672 35.51133 101.316002 39.31599 101.462692 C 43.044933 101.604675 43.953514 103.327164 43.953514 103.951813 L 45.235928 103.951813 L 45.235928 100.478409 L 43.858868 100.478409 C 44.000824 101.136177 43.631718 101.216629 43.357258 100.95163 C 42.884041 100.539932 40.934395 100.005203 38.767056 100.005203 Z M 64.457954 100.487869 L 64.457954 101.827072 L 65.721451 101.827072 C 66.421799 101.850739 66.421799 102.186722 66.421799 102.588959 L 66.421799 108.702911 C 66.421799 109.001022 66.327164 109.284958 65.792427 109.322823 L 64.476891 109.322823 L 64.476891 110.529518 L 70.401543 110.529518 L 70.401543 109.237633 L 69.052879 109.237633 C 68.754745 109.237633 68.409309 109.289696 68.409309 108.622459 L 68.409309 103.58271 L 76.312012 110.529518 L 78.204872 110.529518 L 78.204872 102.380737 C 78.204872 102.082611 78.356308 101.751366 78.678085 101.751366 L 80.059883 101.751366 L 80.059883 100.450027 L 74.30558 100.450027 L 74.30558 101.732437 L 75.569069 101.732437 C 75.862465 101.770279 76.217377 101.770279 76.217377 102.489578 L 76.217377 106.710663 L 69.455116 100.450027 Z M 81.347031 100.487869 L 81.347031 101.803413 L 82.459091 101.803413 C 82.904739 101.786415 83.331207 101.98555 83.604271 102.33815 C 83.642136 102.394928 87.593491 106.734329 87.593491 106.734329 L 87.593491 109.015221 C 87.593491 109.166656 87.565086 109.251831 87.285889 109.251831 L 85.643829 109.251831 L 85.643829 110.529518 L 92.396629 110.529518 L 92.396629 109.237633 L 90.920197 109.237633 C 90.636261 109.237633 90.636261 109.237633 90.636261 109.001022 L 90.636261 106.74379 C 90.636261 106.74379 94.199577 102.527435 94.483513 102.238777 C 94.675003 101.989418 94.96096 101.83017 95.273773 101.798676 L 96.579857 101.798676 L 96.579857 100.483139 L 90.995895 100.483139 L 90.995895 101.798676 L 91.842957 101.798676 C 92.122154 101.798676 92.164742 102.191452 92.032242 102.371277 L 89.708763 105.106461 C 89.708763 105.106461 87.678665 102.669403 87.389992 102.390198 C 87.101341 102.111 87.314278 101.798676 87.465714 101.798676 L 88.166077 101.798676 L 88.166077 100.483139 Z M 55.575699 101.434303 C 57.993824 101.434303 59.834641 102.920212 59.834641 105.537094 C 59.834641 108.153976 57.941776 109.568886 55.575699 109.635132 C 53.209618 109.701385 51.316753 108.153976 51.316753 105.537094 C 51.316753 102.920212 53.152836 101.420105 55.570961 101.420105 Z M 49.897106 113.865685 C 48.061028 113.832565 45.822708 114.812119 45.860573 117.367493 C 45.898426 119.922859 48.226654 120.680008 50.119518 120.680008 C 52.102295 120.680008 53.200146 119.411774 53.327923 118.455887 L 52.608624 118.455887 C 52.343624 119.629463 51.023361 119.875534 50.190498 119.875534 C 48.783226 119.859947 47.651382 118.713318 47.654053 117.305969 C 47.654053 115.928909 48.382809 114.816849 49.840321 114.641769 C 51.222103 114.466675 52.513988 115.176498 52.575512 116.288559 L 53.23801 116.288559 L 53.23801 114.163811 L 52.518711 114.163811 C 52.594429 114.637024 52.390949 114.637024 52.234795 114.457199 C 51.537086 114.022491 50.728485 113.798965 49.906567 113.813637 Z M 92.486542 114.01712 L 92.316177 114.01712 C 91.660019 114.047325 91.016495 114.208221 90.423309 114.490334 C 89.968727 114.685806 89.624199 115.072769 89.482582 115.546906 C 89.340988 116.021049 89.416893 116.533577 89.689835 116.94632 C 90.065536 117.414513 90.605171 117.722374 91.199394 117.807579 C 92.203415 118.016594 93.217407 118.174538 94.237434 118.280792 C 95.183861 118.42276 94.989845 119.250885 94.511902 119.539551 C 93.513412 120.168922 92.320915 120.07901 91.090546 119.29821 C 90.267159 118.768204 90.347595 118.261864 90.347595 118.129364 L 89.60466 118.129364 L 89.60466 120.43866 L 90.437508 120.43866 L 90.437508 120.239899 C 90.437508 119.889725 90.816086 120.145271 91.071617 120.239899 C 92.443954 120.793571 94.384125 120.892944 95.477257 120.055359 C 96.707619 119.108925 96.333786 117.386414 94.904671 116.856415 C 93.835197 116.463654 92.093765 116.600876 91.246719 116.212845 C 90.489571 115.872131 90.773499 114.793198 92.761002 114.831047 C 94.748512 114.868912 95.207535 116.056671 95.207535 116.435257 L 95.879494 116.435257 L 95.879494 114.28685 L 95.155472 114.28685 C 95.226448 114.731674 95.075035 114.726944 94.866814 114.622833 C 94.140457 114.229187 93.326897 114.024178 92.50074 114.026588 Z M 41.601631 114.182747 L 41.601631 114.987213 L 42.301983 114.987213 C 42.571716 114.987213 42.642696 115.138634 42.642696 115.375244 L 42.642696 119.236687 C 42.642696 119.473297 42.571716 119.577408 42.301983 119.577408 L 41.601631 119.577408 L 41.601631 120.381874 L 45.23119 120.381874 L 45.23119 119.567947 L 44.521366 119.567947 C 44.246906 119.567947 44.185387 119.459099 44.185387 119.222488 L 44.209042 115.361046 C 44.209042 115.129181 44.265823 114.973022 44.540298 114.973022 L 45.250122 114.973022 L 45.250122 114.173286 Z M 62.536701 114.182747 L 62.536701 114.987213 L 63.241787 114.987213 C 63.51152 114.987213 63.577778 115.138634 63.577778 115.375244 L 63.577778 118.408562 C 63.577778 120.301422 65.134651 120.661072 66.615814 120.661072 C 68.096985 120.661072 69.563957 120.30616 69.545029 118.507935 L 69.545029 115.668633 C 69.545029 115.195419 69.691719 115.020332 69.866806 115.020332 L 70.595566 115.020332 L 70.595566 114.220596 L 67.49601 114.220596 L 67.49601 115.02507 L 68.196358 115.02507 C 68.470833 115.02507 68.537071 115.176498 68.537071 115.408371 L 68.537071 118.536339 C 68.537071 119.208298 68.371445 119.955986 66.644211 119.955986 C 65.092064 119.955986 65.172516 118.739815 65.172516 118.536339 L 65.172516 115.389435 C 65.172516 115.152832 65.238754 115.001411 65.513229 115.001411 L 66.218315 115.001411 L 66.218315 114.173286 Z M 54.307468 114.182747 L 54.307468 116.548828 L 55.064617 116.548828 C 55.064617 114.935158 55.145069 115.039261 55.783913 114.982483 L 57.20356 114.982483 L 57.20356 119.241425 C 57.20356 119.478035 57.132568 119.629463 56.862846 119.629463 L 56.157745 119.629463 L 56.157745 120.386597 L 59.815708 120.386597 L 59.815708 119.619995 L 59.110622 119.619995 C 58.840885 119.619995 58.774628 119.468575 58.774628 119.231964 L 58.774628 114.973022 L 60.194275 114.973022 C 60.766876 115.039261 60.913574 114.878372 60.913574 116.539368 L 61.651791 116.539368 L 61.651791 114.173286 Z M 33.145248 114.182747 L 33.145248 115.001411 L 33.812485 115.001411 C 34.082222 115.001411 34.153202 115.124435 34.153202 115.351593 L 34.153202 119.213028 C 34.153202 119.444901 34.091682 119.553749 33.817223 119.553749 L 33.112137 119.553749 L 33.112137 120.358208 L 36.784283 120.358208 L 36.784283 119.553749 L 36.064999 119.553749 C 35.795261 119.553749 35.729019 119.449638 35.729019 119.217758 L 35.729019 117.694016 L 37.943665 117.694016 C 39.950096 117.694016 40.782963 117.173477 40.782963 115.886322 C 40.782963 114.599174 40.200901 114.178009 38.416882 114.178009 Z M 71.428429 114.182747 L 71.428429 114.949356 L 72.095665 114.949356 C 72.365387 114.949356 72.431648 115.11972 72.431648 115.351593 L 72.431648 119.208298 C 72.431648 119.444901 72.374863 119.553749 72.100388 119.553749 L 71.390564 119.553749 L 71.390564 120.381874 L 75.048531 120.381874 L 75.048531 119.567947 L 74.381294 119.567947 C 74.111557 119.567947 74.045311 119.463837 74.045311 119.231964 L 74.045311 117.708206 L 75.848267 117.708206 C 76.553352 117.708206 76.9272 117.892754 76.9272 118.370712 L 76.9272 119.052139 C 76.9272 120.282494 77.712738 120.54277 78.531395 120.54277 C 79.501495 120.54277 79.766495 120.225708 79.766495 119.123123 L 79.766495 118.649902 L 79.113457 118.649902 L 79.113457 119.047401 C 79.113457 119.383385 79.146584 119.743034 78.843719 119.743034 C 78.540863 119.743034 78.507736 119.482773 78.507736 119.307663 L 78.507736 118.4133 C 78.474609 117.660889 78.034523 117.533112 77.424072 117.381691 C 78.138626 117.249191 78.966759 116.932129 78.971497 115.962044 C 78.971497 114.79792 78.384697 114.225334 76.605415 114.225334 Z M 80.547295 114.182747 L 80.547295 114.987213 L 81.25238 114.987213 C 81.522118 114.987213 81.588379 115.143372 81.588379 115.375244 L 81.588379 119.231964 C 81.588379 119.463837 81.522118 119.577408 81.25238 119.577408 L 80.547295 119.577408 L 80.547295 120.381874 L 87.919998 120.381874 L 87.919998 118.015793 L 87.205452 118.015793 C 87.205452 119.217758 87.096603 119.520622 86.457756 119.582138 L 83.183113 119.582138 L 83.183113 117.627754 L 84.711594 117.627754 C 84.915085 117.627754 85.042847 117.703476 85.042847 118.020523 L 85.042847 118.687759 L 85.73848 118.687759 L 85.73848 115.782219 L 85.057045 115.782219 L 85.057045 116.421059 C 85.057045 116.747581 84.929283 116.818558 84.725784 116.818558 L 83.183113 116.818558 L 83.183113 114.954086 L 86.471954 114.954086 C 87.110802 115.01561 87.219643 115.346848 87.219643 116.54409 L 87.934204 116.54409 L 87.934204 114.178009 Z M 35.729019 114.954086 L 37.830097 114.954086 C 38.530449 114.954086 39.003666 115.171768 39.003666 115.90052 C 39.003666 116.62928 38.530449 116.846954 37.721252 116.846954 L 35.724281 116.846954 Z M 76.18898 114.954086 L 76.231567 114.954086 C 76.744049 114.977959 77.154129 115.388039 77.178001 115.90052 C 77.178001 116.496765 76.761566 116.846954 75.999695 116.846954 L 74.002724 116.846954 L 74.002724 114.954086 L 76.174789 114.954086 Z"/>
</svg>
